images/icons/search.svg

<svg xmlns="http://www.w3.org/2000/svg" viewBox="0 0 27.5 27.6" enable-background="new 0 0 792 612"><path d="M17.8 20.5c-2.3 0-4.5-.8-6.3-2.3l-1.8 4.4-4.5 4.5c-.5.3-1 .5-1.6.5-1.4 0-2.6-1.3-2.6-2.7 0-.6.2-1.1.5-1.6l4.5-4.5 4.4-1.8c-1.5-1.8-2.3-4.1-2.3-6.4 0-5.3 4.4-9.6 9.7-9.6 5.2 0 9.7 4.4 9.7 9.7 0 2.5-.9 5-2.8 6.9-2 2-4.5 2.9-6.9 2.9zm0-3.7c3.2 0 5.9-2.7 5.9-6 0-3.2-2.7-5.9-5.9-5.9-3.3 0-6 2.7-6 5.9 0 1.6.6 3.1 1.7 4.3 1.2 1.1 2.7 1.7 4.3 1.7z" fill="#a4a4a4"/><path d="M16.8 19.5c-2.3 0-4.5-.8-6.3-2.3l-1.8 4.4-4.5 4.5c-.5.3-1 .5-1.6.5-1.4 0-2.6-1.3-2.6-2.7 0-.6.2-1.1.5-1.6l4.5-4.5 4.4-1.8c-1.5-1.8-2.3-4.1-2.3-6.4 0-5.3 4.4-9.6 9.7-9.6 5.2 0 9.7 4.4 9.7 9.7 0 2.5-.9 5-2.8 6.9-2 2-4.5 2.9-6.9 2.9zm0-3.7c3.2 0 5.9-2.7 5.9-6 0-3.2-2.7-5.9-5.9-5.9-3.3 0-6 2.7-6 5.9 0 1.6.6 3.1 1.7 4.3 1.2 1.1 2.7 1.7 4.3 1.7z" fill="#a4a4a4"/></svg>

<?xml version="1.0" encoding="UTF-8" standalone="no"?>
<!-- Generator: Adobe Illustrator 18.0.0, SVG Export Plug-In . SVG Version: 6.00 Build 0)  -->

<svg
   xmlns:dc="http://purl.org/dc/elements/1.1/"
   xmlns:cc="http://creativecommons.org/ns#"
   xmlns:rdf="http://www.w3.org/1999/02/22-rdf-syntax-ns#"
   xmlns:svg="http://www.w3.org/2000/svg"
   xmlns="http://www.w3.org/2000/svg"
   xmlns:sodipodi="http://sodipodi.sourceforge.net/DTD/sodipodi-0.dtd"
   xmlns:inkscape="http://www.inkscape.org/namespaces/inkscape"
   version="1.1"
   id="Layer_1"
   x="0px"
   y="0px"
   viewBox="0 0 27.5 27.6"
   enable-background="new 0 0 792 612"
   xml:space="preserve"
   inkscape:version="0.48.5 r10040"
   width="100%"
   height="100%"
   sodipodi:docname="search.svg"><metadata
     id="metadata3037"><rdf:RDF><cc:Work
         rdf:about=""><dc:format>image/svg+xml</dc:format><dc:type
           rdf:resource="http://purl.org/dc/dcmitype/StillImage" /></cc:Work></rdf:RDF></metadata><defs
     id="defs3035" /><sodipodi:namedview
     pagecolor="#ffffff"
     bordercolor="#666666"
     borderopacity="1"
     objecttolerance="10"
     gridtolerance="10"
     guidetolerance="10"
     inkscape:pageopacity="0"
     inkscape:pageshadow="2"
     inkscape:window-width="640"
     inkscape:window-height="480"
     id="namedview3033"
     showgrid="false"
     fit-margin-top="0"
     fit-margin-left="0"
     fit-margin-right="0"
     fit-margin-bottom="0"
     inkscape:zoom="0.38562092"
     inkscape:cx="13.6"
     inkscape:cy="13.6"
     inkscape:window-x="59"
     inkscape:window-y="0"
     inkscape:window-maximized="0"
     inkscape:current-layer="Layer_1" /><path
     d="m 17.8,20.5 c -2.3,0 -4.5,-0.8 -6.3,-2.3 L 9.7,22.6 5.2,27.1 C 4.7,27.4 4.2,27.6 3.6,27.6 2.2,27.6 1,26.3 1,24.9 1,24.3 1.2,23.8 1.5,23.3 L 6,18.8 10.4,17 C 8.9,15.2 8.1,12.9 8.1,10.6 8.1,5.3 12.5,1 17.8,1 c 5.2,0 9.7,4.4 9.7,9.7 0,2.5 -0.9,5 -2.8,6.9 -2,2 -4.5,2.9 -6.9,2.9 z m 0,-3.7 c 3.2,0 5.9,-2.7 5.9,-6 0,-3.2 -2.7,-5.9 -5.9,-5.9 -3.3,0 -6,2.7 -6,5.9 0,1.6 0.6,3.1 1.7,4.3 1.2,1.1 2.7,1.7 4.3,1.7 z"
     id="path3029"
     inkscape:connector-curvature="0"
     style="fill:#a4a4a4" /><path
     d="m 16.8,19.5 c -2.3,0 -4.5,-0.8 -6.3,-2.3 L 8.7,21.6 4.2,26.1 C 3.7,26.4 3.2,26.6 2.6,26.6 1.2,26.6 0,25.3 0,23.9 0,23.3 0.2,22.8 0.5,22.3 L 5,17.8 9.4,16 C 7.9,14.2 7.1,11.9 7.1,9.6 7.1,4.3 11.5,0 16.8,0 c 5.2,0 9.7,4.4 9.7,9.7 0,2.5 -0.9,5 -2.8,6.9 -2,2 -4.5,2.9 -6.9,2.9 z m 0,-3.7 c 3.2,0 5.9,-2.7 5.9,-6 0,-3.2 -2.7,-5.9 -5.9,-5.9 -3.3,0 -6,2.7 -6,5.9 0,1.6 0.6,3.1 1.7,4.3 1.2,1.1 2.7,1.7 4.3,1.7 z"
     id="path3031"
     inkscape:connector-curvature="0"
     style="fill:#a4a4a4" /></svg>
